X:1
T:Title
%%score { 1 | 2 }
L:1/8
M:4/4
K:F
V:1 treble nm="Grand Piano"
V:2 bass 
V:1
 z4 z2[Q:1/4=100] FG | Accd c2 AG | [DF][DF][DF]D C4 | F2 F>F A2 cd | cAGF [EG]2 [Ec][GB] | %5
 AcFA C2 CC | FFAc d4 | c2 c>d c2 AF | G4 F2 z2 | [EG]2 [Ec]2 A2 c2 | dBfd c2 cc | %11
 [Ec][EG][EG][FA] [GB]>[^FA] [GB][EG] | Ac=B[Fd] [Ec]2 [Ec][G_B] | AcFA C2 CC | FFAc d4 | %15
 c2 c>d c2 AF |[M:8/4] G4 .F4 z8 |] %17
V:2
 z4 z2 [F,A,][F,B,F] | [F,CF][F,A,F][F,A,F][F,B,F] [F,A,F]2 [F,CF][F,A,_E] | %2
 [B,,B,][B,,B,][B,,B,][D,F,B,] [F,A,]4 | [F,A,C]2 [F,A,C]>[F,A,C] [F,CF]2 [F,A,F][F,B,F] | %4
 [F,A,F][F,CF][G,CE][G,=B,D] [C,C]2 [C,G,][C,C] | [F,CF][F,A,F][F,A,C][F,C] [F,A,]2 [F,A,][F,A,] | %6
 [F,A,C][F,A,C][K:treble][F,CF][A,CF] [B,F]4 | %7
 [F,A,F]2 [F,A,F]>[K:bass][F,B,F] [F,A,F]2 [F,CF][F,A,C] | [C,B,C]4 [F,A,C]2 z2 | %9
 [C,C]2 [C,C]2[K:treble] [F,CF]2 [F,A,F]2 | %10
 [B,F][B,DF][B,DF][B,F][K:bass] [F,A,F]2 [F,A,F][F,A,F] | %11
 [C,G,][C,C][C,C][C,C] [C,C]>[C,C] [C,C][C,C] | %12
 [F,CF][A,CF][G,DF][K:bass][G,,G,] [C,G,]2 [C,G,][C,C] | %13
 [F,CF][F,A,F][F,A,C][F,C] [F,A,]2 [F,A,][F,A,] | [F,A,C][F,A,C][K:treble][F,CF][A,CF] [B,F]4 | %15
 [F,A,F]2 [F,A,F]>[K:bass][F,B,F] [F,A,F]2 [F,CF][F,A,C] |[M:8/4] [C,B,C]4 .[F,A,C]4 z8 |] %17

